X: 00030
T: GAIL'S CAT
C: Bob McQuillen May'08
N: He also spells his name "Gale".
B: Bob's Note Book 00 #30
%R: reel
Z: 2020 John Chambers <jc:trillian.mit.edu>
M: C
L: 1/8
K: D
fe \
| d2dB AFEG | F2D2 D2FA | d2de fagf | edef e2fe |
| d2dB AFEG | FDFA dfed | Bdgf edcB | A2d2 d2  :|
|: cd \
| e2ef gfed | cdef e2cd | e2ef gfed | cdef d2fg |
| agfa g2ag | fdAF G2AG | FAdB cAce | d2f2 d2  :|
%%begintext align
%% Gail Wood
%% is an avid Contra Dancer, and when he
%% comes to the Deerfield Dance, he brings
%% his cute kitty with him. You should see
%% those two dance Money Musk. Amazing!
%%endtext

%%sep 1 1 500

%%sep 1 1 500

